assets/icons/qvision/commute.svg

<svg xmlns="http://www.w3.org/2000/svg" height="24" viewBox="0 0 24 24" width="24"><path d="M0 0h24v24H0z" fill="none"/><path d="M12 4H5C3.34 4 2 5.34 2 7v8c0 1.66 1.34 3 3 3l-1 1v1h1l2-2.03L9 18v-5H4V5.98L13 6v2h2V7c0-1.66-1.34-3-3-3zM5 14c.55 0 1 .45 1 1s-.45 1-1 1-1-.45-1-1 .45-1 1-1zm15.57-4.34c-.14-.4-.52-.66-.97-.66h-7.19c-.46 0-.83.26-.98.66L10 13.77l.01 5.51c0 .38.31.72.69.72h.62c.38 0 .68-.38.68-.76V18h8v1.24c0 .38.31.76.69.76h.61c.38 0 .69-.34.69-.72l.01-1.37v-4.14l-1.43-4.11zm-8.16.34h7.19l1.03 3h-9.25l1.03-3zM12 16c-.55 0-1-.45-1-1s.45-1 1-1 1 .45 1 1-.45 1-1 1zm8 0c-.55 0-1-.45-1-1s.45-1 1-1 1 .45 1 1-.45 1-1 1z"/></svg>

<svg width="24" height="24" viewBox="0 0 24 24" fill="none" xmlns="http://www.w3.org/2000/svg">
<g clip-path="url(#clip0_147_4031)">
<path d="M12 4H5C3.34 4 2 5.34 2 7V15C2 16.66 3.34 18 5 18L4 19V20H5L7 17.97L9 18V13H4V5.98L13 6V8H15V7C15 5.34 13.66 4 12 4ZM5 14C5.55 14 6 14.45 6 15C6 15.55 5.55 16 5 16C4.45 16 4 15.55 4 15C4 14.45 4.45 14 5 14ZM20.57 9.66C20.43 9.26 20.05 9 19.6 9H12.41C11.95 9 11.58 9.26 11.43 9.66L10 13.77L10.01 19.28C10.01 19.66 10.32 20 10.7 20H11.32C11.7 20 12 19.62 12 19.24V18H20V19.24C20 19.62 20.31 20 20.69 20H21.3C21.68 20 21.99 19.66 21.99 19.28L22 17.91V13.77L20.57 9.66ZM12.41 10H19.6L20.63 13H11.38L12.41 10ZM12 16C11.45 16 11 15.55 11 15C11 14.45 11.45 14 12 14C12.55 14 13 14.45 13 15C13 15.55 12.55 16 12 16ZM20 16C19.45 16 19 15.55 19 15C19 14.45 19.45 14 20 14C20.55 14 21 14.45 21 15C21 15.55 20.55 16 20 16Z" fill="#323232"/>
</g>
<defs>
<clipPath id="clip0_147_4031">
<rect width="24" height="24" fill="white"/>
</clipPath>
</defs>
</svg>
